X:6
T:Polka de Gap
R:Polka
C:Trad./Gapenais
L:1/8
G:Accordion
%%MIDI program 21 %Accordian
Q:200
M:2/4
K:G
z2DG|GA/B/AG|AAd2|dc/B/Ac|BGDG|GA/B/AG|A2Ad|dc/B/AB|G2BB/c/|dddd|edBB/c/|dc/B/Ad|BGAB/c/|dddd|edBB/c/|dc/B/Ad|G4|z4| \
K:C
Z:Created with TablEdit http://www.tabledit.com/
